!!!COA:	Josquin des Prez
!!!CDT:	~1450-1521/08/27
!!!COM2: La Rue, Pierre de
!!!CDT2: ~1452///-1518/11/20/
!!!OPR:	Missa Sub tuum presidium
!!!ONM:	2
!!!OTL:	Gloria
!!!AGN:	Mass; Gloria
!!!SCT:	NJE 4.5
!!!SCA:	New Josquin Edition 4.5
!!!voices:	4
!!!voices-OPR:	4
**kern	**kern	**kern	**kern
*staff4	*staff3	*staff2	*staff1
*Ivox	*Ivox	*Ivox	*Ivox
*I"Bassus	*I"Tenor	*I"Altus	*I"Superius
*I'B	*I'T	*I'A	*I'S
*>[A,B]	*>[A,B]	*>[A,B]	*>[A,B]
*>A	*>A	*>A	*>A
*clefF4	*clefGv2	*clefGv2	*clefG2
*k[]	*k[]	*k[]	*k[]
*M3/1	*M3/1	*M3/1	*M3/1
*met(O)	*met(O)	*met(O)	*met(O)
=1-	=1-	=1-	=1-
0.r	0.r	0.r	1e
.	.	.	2g/
.	.	.	2a/
.	.	.	1b
=2	=2	=2	=2
0.r	0.r	1A	2a/
.	.	.	2.cc\
.	.	2c\	.
.	.	.	4b\
.	.	2d\	2a/
.	.	[1e	2g/
.	.	.	2e/
=3	=3	=3	=3
0.r	0.r	2e\]	2g/
.	.	2c\	2a/
.	.	2d\	1b
.	.	2e\	.
.	.	1A	2r
.	.	.	2cc\
=4	=4	=4	=4
0.r	0.r	2c\	2cc\
.	.	2d\	2.b\
.	.	1e	.
.	.	.	4a/
.	.	.	4g/
.	.	.	4f/
.	.	2r	2e/
.	.	2f\	2a/
=5	=5	=5	=5
0.r	0.r	2f\	2a/
.	.	2.e\	2.g/
.	.	4d\	4f/
.	.	4c\	4e/
.	.	4B\	4d/
.	.	2A/	2c/
.	.	2d\	[2f/
=6	=6	=6	=6
2r	0.r	2d\	2f/]
2AA/	.	1c	1e
2C/	.	.	.
2D\	.	4B\	4d/
.	.	4A/	4c/
2E\	.	2G/	2B/
2AA/	.	[2c\	[2e/
=7	=7	=7	=7
2.C/	2r	4c\]	4e/]
.	.	4B\	4d/
.	2E/	4A/	4c/
4D\	.	4G/	4B/
2E\	2G/	2G/	1B
2E\	2A/	2.e\	.
1E	2B\	.	1r
.	.	4d\	.
.	2E/	4c\	.
.	.	4B\	.
=8	=8	=8	=8
2r	2.G/	1B	0.r
2E\	.	.	.
.	4A/	.	.
2E\	2B\	1r	.
2.G\	2B\	.	.
.	1B	1r	.
4F\	.	.	.
[2E\	.	.	.
=9	=9	=9	=9
2E\]	2r	0.r	0.r
2D\	2B\	.	.
2E\	2B\	.	.
2BB/	2.d\	.	.
2D\	.	.	.
.	4c\	.	.
2E\	[2B\	.	.
=10	=10	=10	=10
1C	2B\]	0.r	0.r
.	2A/	.	.
1BB	4B\	.	.
.	4c\	.	.
.	4d\	.	.
.	4B\	.	.
2.E\	2c\	.	.
.	[2B\	.	.
4F\	.	.	.
=11	=11	=11	=11
4G\	2B\]	0.r	1r
4E\	.	.	.
2F\	2d\	.	.
2E\	2c\	.	2.e/
1G	4B\	.	.
.	4A/	.	4e/
.	2B\	.	2g/
2F\	2A/	.	2a/
=12	=12	=12	=12
4E\	2G/	0.r	2b\
4D\	.	.	.
2.E\	4c\	.	2e/
.	4B\	.	.
.	2B\	.	2g/
4D\	.	.	.
2C/	1A	.	2a/
1BB	.	.	2b\
.	2G#i/	.	2b\
=13	=13	=13	=13
0.AA	0.A	2r	0cc
.	.	2A/	.
.	.	2.c\	.
.	.	4d\	.
.	.	2e\	1r
.	.	2e\	.
=14	=14	=14	=14
0.r	0.r	0f	2r
.	.	.	2.a/
.	.	.	4a/
.	.	.	2a/
.	.	2r	2a/
.	.	[2d\	[2b\
=15	=15	=15	=15
2r	0.r	4d\]	2b\]
.	.	4d\	.
2F\	.	2d\	2a/
2G\	.	2d\	2.b\
2E\	.	1e	.
.	.	.	4cc\
1F	.	.	4dd\
.	.	.	4cc\
.	.	2d\	4b\
.	.	.	4a/
=16	=16	=16	=16
0E	0.r	2.e\	2g/
.	.	.	2.cc\
.	.	4f\	.
.	.	4g\	.
.	.	4f\	4b\
.	.	4e\	1b
.	.	4d\	.
2r	.	1c	.
2F\	.	.	2a/
=17	=17	=17	=17
2G\	1r	2B\	1b
2E\	.	1B	.
1F	2r	.	1r
.	2d\	2A/	.
1E	2e\	1B	1r
.	2B\	.	.
=18	=18	=18	=18
2r	1c	0.r	2r
2.E\	.	.	1g
.	1B	.	.
4F\	.	.	.
4G\	.	.	2g/
8F\L	.	.	.
8G\J	.	.	.
2A\	2r	.	2e/
[2E\	[2G/	.	[2g/
=19	=19	=19	=19
2E\]	2G/]	0.r	4g/]
.	.	.	4a/
2E\	2G/	.	4b\
.	.	.	8a/L
.	.	.	8b/J
2AA/	2E/	.	2cc\
2.E\	2.G/	.	1b
4F\	4A/	.	.
4G\	4B\	.	2b\
8F\L	8A/L	.	.
8G\J	8B/J	.	.
=20	=20	=20	=20
2A\	2c\	1e	2e/
1E	1B	.	2.g/
.	.	2e\	.
.	.	.	4a/
2E\	2E/	2e\	4b\
.	.	.	8a/L
.	.	.	8b/J
2AA/	2A/	4c\	2.cc\
.	.	4d\	.
[2C/	[2E/	4e\	.
.	.	8d\L	4a/
.	.	8e\J	.
=21	=21	=21	=21
4C/]	4E/]	2f\	2cc\
4D\	4F/	.	.
4E\	4G/	2.e\	1b
8D\L	8F/L	.	.
8E\J	8G/J	.	.
1F	1A	.	.
.	.	4c\	.
.	.	2d\	1a
1E	1B	1e	.
.	.	.	2g#i/
=22	=22	=22	=22
0.AA	0A	1c	0a
.	.	2r	.
.	.	2.A/	.
.	1r	.	1r
.	.	4A/	.
.	.	2A/	.
=23	=23	=23	=23
0.r	0.r	2A/	2r
.	.	1A	2.e/
.	.	.	4e/
.	.	2G/	2e/
.	.	2A/	2e/
.	.	2c\	[2e/
=24	=24	=24	=24
1r	0.r	4B\	2e/]
.	.	4A/	.
.	.	4G/	2d/
.	.	4F/	.
2r	.	1E	2e/
2E\	.	.	2g/
2G\	.	1D	4f/
.	.	.	4e/
2A\	.	.	4d/
.	.	.	4c/
=25	=25	=25	=25
4G\	2r	0E	2B/
4F\	.	.	.
4E\	2G/	.	1e
4D\	.	.	.
1C	2A/	.	.
.	2c\	.	1e
1r	4B\	1r	.
.	4A/	.	.
.	4G/	.	2d/
.	4F/	.	.
=26	=26	=26	=26
2r	2E/	0.r	1e
2C/	1A	.	.
2D\	.	.	2r
2F\	2.A/	.	2a/
4E\	.	.	2b\
4D\	4G#i/	.	.
4C/	2G#i/	.	2dd\
4BB/	.	.	.
=27	=27	=27	=27
1AA	1A	0.r	4cc\
.	.	.	4b\
.	.	.	4a/
.	.	.	4g/
2r	2r	.	2f/
2C/	1A	.	1e
2D\	.	.	.
2F\	[2A/	.	2a/
=28	=28	=28	=28
4E\	4A/]	2r	2b\
4D\	4G#i/	.	.
4C/	2G#i/	2B\	2dd\
4BB/	.	.	.
1AA	1A	2c\	4cc\
.	.	.	4b\
.	.	2e\	4a/
.	.	.	4g/
1r	2r	2d\	2f/
.	2G/	2B\	[2e/
=29	=29	=29	=29
2r	2A/	2c\	2e/]
2C/	2c\	2.e\	1a
2D\	2.B\	.	.
.	.	4d\	.
2F\	.	2d\	2.a/
.	4A/	.	.
1E	1B	1e	.
.	.	.	4g#i/
.	.	.	2g#i/
=30	=30	=30	=30
1AA	1A	2r	1a
.	.	2.e\	.
1r	1r	.	2r
.	.	4e\	.
.	.	2e\	2.b\
1r	1r	2e\	.
.	.	.	4b\
.	.	[2e\	2b\
=31	=31	=31	=31
0.r	0.r	2e\]	2b\
.	.	2d\	1b
.	.	2e\	.
.	.	2c\	2a/
.	.	2d\	2b\
.	.	2e\	2g/
=32	=32	=32	=32
0.r	0.r	2.f\	2a/
.	.	.	2b\
.	.	4d\	.
.	.	2e\	2cc\
.	.	2f\	2a/
.	.	2d\	2b\
.	.	2e\	2cc\
=33	=33	=33	=33
1r	1r	4d\	4b\
.	.	4B\	4g/
.	.	2c\	2a/
2r	1r	1B	2.b\
2.E\	.	.	.
.	.	.	4e/
.	2r	1r	1e
4E\	.	.	.
2E\	[2B\	.	.
=34	=34	=34	=34
2E\	4B\]	0.r	0.r
.	4B\	.	.
1E	2B\	.	.
.	2B\	.	.
2D\	1B	.	.
2E\	.	.	.
2C/	2A/	.	.
=35	=35	=35	=35
2D\	2B\	0.r	0.r
2E\	2G/	.	.
2.F\	2A/	.	.
.	2B\	.	.
4D\	.	.	.
2E\	2c\	.	.
2F\	2A/	.	.
=36	=36	=36	=36
2D\	2B\	0.r	1r
2E\	2c\	.	.
4D\	4B\	.	1r
4BB/	4G/	.	.
2C/	2A/	.	.
1BB	2.B\	.	2.b\
.	4E/	.	4b\
=37	=37	=37	=37
0.r	1E	2.e\	2b\
.	.	.	2b\
.	.	4e\	.
.	1r	2e\	2g/
.	.	2e\	1cc
.	1r	2c\	.
.	.	[2f\	[2a/
=38	=38	=38	=38
1r	1r	2f\]	4a/]
.	.	.	2f/
.	.	2.d\	.
.	.	.	4d/
1r	2.B\	.	1d
.	.	2B\	.
.	4B\	4G/	.
2.E\	2B\	1G	1r
.	2B\	.	.
4E\	.	.	.
=39	=39	=39	=39
2E\	2G/	0.r	0.r
2E\	1c	.	.
2C/	.	.	.
1F	2.A/	.	.
.	2F/	.	.
[2D\	.	.	.
.	4D/	.	.
=40	=40	=40	=40
4D\]	0D	2.d\	2r
2BB/	.	.	.
.	.	.	2.dd\
4GG/	.	2B\	.
0GG	.	.	.
.	.	4G/	2b\
.	.	1G	.
.	.	.	4g/
.	2r	.	[1g
.	[2d\	2g\	.
=41	=41	=41	=41
2.G\	4d\]	2d\	1g]
.	2B\	.	.
.	.	2.g\	.
2E\	4G/	.	.
.	1A	.	2r
4C/	.	4e\	.
2D\	.	2f\	2.dd\
1GG	1B	4.g\	.
.	.	.	2b\
.	.	8f\	.
.	.	4e\	.
.	.	4d\	4g/
=42	=42	=42	=42
2r	2r	2c\	2a/
2G\	2.d\	2.B\	2b\
2G\	.	.	2.g/
.	2B\	4G/	.
2E\	.	2G/	.
.	4G/	.	2e/
1F	1A	1r	.
.	.	.	4c/
.	.	.	2d/
=43	=43	=43	=43
0.El	0.Bl	0.Gl	0.el
!!LO:LB:i:g=z
=44||	=44||	=44||	=44||
*>B	*>B	*>B	*>B
*clefF4	*clefGv2	*clefGv2	*clefG2
*k[]	*k[]	*k[]	*k[]
*met(O)	*met(O)	*met(O)	*met(O)
*M2/1	*M2/1	*M2/1	*M2/1
*met(C|)	*met(C|)	*met(C|)	*met(C|)
!!section: Qui tollis
!!!OMD: Qui tollis
0r	0r	0r	0e
=45	=45	=45	=45
0r	0r	0r	1g
.	.	.	1a
=46	=46	=46	=46
0r	0r	0E	1b
.	.	.	1e
=47	=47	=47	=47
0r	0r	1G	2r
.	.	.	2b\
.	.	1A	1cc
=48	=48	=48	=48
0r	0r	1B	2b\
.	.	.	2.g/
.	.	1E	.
.	.	.	4f/
.	.	.	[2e/
=49	=49	=49	=49
0r	0r	2r	2e/]
.	.	2B\	2d/
.	.	2.c\	2.e/
.	.	4B\	4d/
=50	=50	=50	=50
0r	0r	2G/	2B/
.	.	2d\	2b\
.	.	2c\	2a/
.	.	[2e\	[2cc\
=51	=51	=51	=51
0r	0r	4e\]	4cc\]
.	.	4d\	4b\
.	.	4c\	4a/
.	.	4B\	4g/
.	.	1A	2f/
.	.	.	2e/
=52	=52	=52	=52
0r	0r	2E/	2r
.	.	2c\	2e/
.	.	2B\	2d/
.	.	[2d\	[2f/
=53	=53	=53	=53
0r	0r	4d\]	4f/]
.	.	4c\	4e/
.	.	4B\	4d/
.	.	4A/	4c/
.	.	2G/	2B/
.	.	[2A/	[2A/
=54	=54	=54	=54
0r	0r	2A/]	2A/]
.	.	2d\	2b\
.	.	2c\	2a/
.	.	[2e\	[2cc\
=55	=55	=55	=55
0AA	0r	4e\]	4cc\]
.	.	4d\	4b\
.	.	4c\	4a/
.	.	4B\	4g/
.	.	1A	2f/
.	.	.	[2e/
=56	=56	=56	=56
1C	0r	2E/	2e/]
.	.	2e\	2cc\
1D	.	2d\	2b\
.	.	[2f\	[2dd\
=57	=57	=57	=57
0E	0r	4f\]	4dd\]
.	.	4e\	4cc\
.	.	4d\	4b\
.	.	4c\	4a/
.	.	1B	2.g#i/
.	.	.	4f#i/
=58	=58	=58	=58
0AA	0E	0A	0a
=59	=59	=59	=59
2r	1G	0r	0r
2E\	.	.	.
1F	1A	.	.
=60	=60	=60	=60
2E\	1B	0r	0r
2.G\	.	.	.
.	1E	.	.
4F\	.	.	.
[2E\	.	.	.
=61	=61	=61	=61
2E\]	2r	0r	0r
2D\	2B\	.	.
2E\	1c	.	.
2C/	.	.	.
=62	=62	=62	=62
2D\	2B\	0r	0r
1E	2.G/	.	.
.	4F/	.	.
2G\	[2E/	.	.
=63	=63	=63	=63
1F	2E/]	0r	0r
.	2D/	.	.
2E\	2E/	.	.
2G\	2B\	.	.
=64	=64	=64	=64
2F\	2A/	0r	0r
2.A\	2.c\	.	.
4G\	4B\	.	.
4F\	4A/	.	.
4E\	4G/	.	.
=65	=65	=65	=65
2D\	2F/	0r	0r
2E\	1E	.	.
1AA	.	.	.
.	2A/	.	.
=66	=66	=66	=66
2r	2G/	0r	0r
2D\	2B\	.	.
2C/	2A/	.	.
[2E\	[2c\	.	.
=67	=67	=67	=67
4E\]	4c\]	0r	0e
4D\	4B\	.	.
4C/	4A/	.	.
4BB/	4G/	.	.
2AA/	2A/	.	.
[2GG/	2B\	.	.
=68	=68	=68	=68
2GG/]	2E/	0r	1g
2E\	2c\	.	.
2D\	2A/	.	1a
[2F\	[2d\	.	.
=69	=69	=69	=69
4F\]	4d\]	0r	0b
4E\	4c\	.	.
4D\	4B\	.	.
4C/	4A/	.	.
1BB	2.G#i/	.	.
.	4F#i/	.	.
=70	=70	=70	=70
[0AA	[0A	1.e	1.cc
.	.	2e\	2cc\
=71	=71	=71	=71
0AA]	0A]	2e\	2cc\
.	.	1e	2cc\
.	.	.	2cc\
.	.	4d\	[2cc\
.	.	4c\	.
=72	=72	=72	=72
0r	0r	1e	2cc\]
.	.	.	1b
.	.	[1B	.
.	.	.	4a/
.	.	.	4g/
=73	=73	=73	=73
0r	0r	2B\]	2b\
.	.	2.g\	2e/
.	.	.	1g
.	.	4f\	.
.	.	[2e\	.
=74	=74	=74	=74
0r	0r	2e\]	1f
.	.	2d\	.
.	.	2e\	2e/
.	.	2A/	[2cc\
=75	=75	=75	=75
0r	0r	1c	4cc\]
.	.	.	4b\
.	.	.	1a
.	.	1B	.
.	.	.	2g#i/
=76	=76	=76	=76
0r	2r	2A/	2a/
.	2A/	2c\	2e/
.	2A/	2c\	2e/
.	2E/	[2B\	[2g/
=77	=77	=77	=77
0r	1G	2B\]	4g/]
.	.	.	4f/
.	.	2G/	1e
.	1F	1A	.
.	.	.	2d/
=78	=78	=78	=78
1r	1E	1B	1e
2r	2r	1r	2r
2A\	2c\	.	2e/
=79	=79	=79	=79
2A\	2c\	0r	2e/
2E\	1B	.	2.g/
1G	.	.	.
.	.	.	4f/
.	2G/	.	[2e/
=80	=80	=80	=80
1F	1A	2r	2e/]
.	.	1A	2d/
1E	1B	.	1e
.	.	2G/	.
=81	=81	=81	=81
2r	0r	2A/	2A/
2A\	.	2e\	2cc\
2A\	.	2e\	2cc\
2E\	.	[2g\	[2b\
=82	=82	=82	=82
1G	0r	4g\]	2b\]
.	.	4f\	.
.	.	1e	4a/
.	.	.	4g/
1F	.	.	1a
.	.	2d\	.
=83	=83	=83	=83
0E	2r	0e	0g
.	2c\	.	.
.	2c\	.	.
.	[2B\	.	.
=84	=84	=84	=84
0r	2B\]	2d\	1r
.	2G/	2B\	.
.	1A	2.c\	1e
.	.	8B/L	.
.	.	8A/J	.
=85	=85	=85	=85
1E	0B	0G	2e/
.	.	.	1e
2E\	.	.	.
[2E\	.	.	2e/
=86	=86	=86	=86
2E\]	1B	2r	2.g/
2E\	.	2e\	.
.	.	.	4a/
2G\	2B\	2d\	1b
2G\	[2B\	2B\	.
=87	=87	=87	=87
1A	2B\]	1c	1e
.	2A/	.	.
1E	2B\	2B\	1r
.	[2c\	[2e\	.
=88	=88	=88	=88
0r	2c\]	2e\]	1r
.	1B	2d\	.
.	.	1c	2r
.	2A/	.	2e/
=89	=89	=89	=89
2r	0B	2B\	2.g/
2E\	.	2e\	.
.	.	.	4a/
2G\	.	2e\	2b\
2G\	.	2d\	2b\
=90	=90	=90	=90
2A\	1r	2c\	1e
2A\	.	2c\	.
1E	2r	2B\	1r
.	2E/	[2e\	.
=91	=91	=91	=91
0r	2G/	4e\]	2r
.	.	4B\	.
.	2G/	2d\	1b
.	2A/	1c	.
.	2A/	.	2a/
=92	=92	=92	=92
2r	1E	0B	1b
1E	.	.	.
.	[1B	.	1b
2D\	.	.	.
=93	=93	=93	=93
1E	1B]	1.e	1cc
1C	1A	.	1cc
.	.	2e\	.
=94	=94	=94	=94
1.BB	1B	1d	1.dd
.	2B\	2r	.
2GG/	[2d\	[2G/	2b\
=95	=95	=95	=95
0GG	4d\]	4G/]	1b
.	4c\	4A/	.
.	4B\	4B\	.
.	4A/	4c\	.
.	2.G/	2d\	2r
.	.	2G/	[2dd\
.	4A/	.	.
=96	=96	=96	=96
0r	1B	1d	4dd\]
.	.	.	4cc\
.	.	.	4b\
.	.	.	4a/
.	1c	1e	2g/
.	.	.	2a/
=97	=97	=97	=97
0r	1B	2r	1b
.	.	2d\	.
.	2r	2e\	1cc
.	2A/	2f\	.
=98	=98	=98	=98
2r	2G/	2.g\	1b
2.G\	2.B\	.	.
.	.	4f\	.
.	.	2d\	2r
4F\	4c\	.	.
4E\	4d\	[2g\	2b\
4D\	8c\L	.	.
.	8d\J	.	.
=99	=99	=99	=99
2C/	2.e\	2g\]	2cc\
2D\	.	1f	4b\
.	4d\	.	4a/
1E	2B\	.	2g/
.	2G/	[2e\	[2b\
=100	=100	=100	=100
1F	1A	2e\]	2b\]
.	.	2d\	1a
1E	1B	1e	.
.	.	.	2g#i/
=101	=101	=101	=101
*	*M3/1	*	*M3/1
*	*met(3)	*	*met(3)
!LO:N:vis=0	!	!LO:N:vis=0	!
0.r	0.A	0.c	1a
.	.	.	1e
.	.	.	1f
=102	=102	=102	=102
*	*	*M3/1	*
*	*	*met(3)	*
!LO:N:vis=0	!	!	!
0.r	0.r	1r	1e
.	.	1B	1g
.	.	1c	1a
=103	=103	=103	=103
!LO:N:vis=0	!	!	!
0.r	1r	2B\	2g/
.	.	1e	1b
.	1E	.	.
.	.	2c\	2cc\
.	1F	1d	1a
=104	=104	=104	=104
!LO:N:vis=0	!	!	!
0.r	1E	1e	0g
.	1G	1B	.
.	1A	1c	1r
=105	=105	=105	=105
*M3/1	*	*	*
*met(3)	*	*	*
1r	2G/	2B\	0.r
.	1B	1e	.
1E	.	.	.
.	2c\	2c\	.
1F	1A	1d	.
=106	=106	=106	=106
1E	1B	1e	1r
1G	1E	2c\	1e
.	.	2B\	.
1A	1F	1A	1d
=107	=107	=107	=107
2G\	1E	0B	2e/
1E	.	.	1g
.	1G	.	.
2G\	.	.	2b\
1F	1A	1r	1a
=108	=108	=108	=108
0E	2G/	0.r	1.b
.	1B	.	.
.	2c\	.	2g/
1r	1A	.	1a
=109	=109	=109	=109
2E\	1B	2e\	2g/
1G	.	1e	1b
.	1r	.	.
2A\	.	2c\	2cc\
1F	1r	1d	1a
=110	=110	=110	=110
0.E	2E/	0e	0g
.	2F/	.	.
.	2G/	.	.
.	2A/	.	.
.	1B	1r	2e/
.	.	.	2f/
=111	=111	=111	=111
0.r	0E	1e	2g/
.	.	.	2a/
.	.	2d\	1b
.	.	2c\	.
.	1E	1B	1e
=112	=112	=112	=112
0.r	2A/	0A	1.cc
.	2B\	.	.
.	2c\	.	.
.	2d\	.	2b\
.	1e	1E	2b\
.	.	.	2a/
=113	=113	=113	=113
2AA/	0A	1.c	0a
2BB/	.	.	.
2C/	.	.	.
2D\	.	2B\	.
1E	1r	2B\	1g
.	.	2A/	.
=114	=114	=114	=114
1AA	1.c	1.A	0a
0D	.	.	.
.	2B\	2G/	.
.	2B\	2F/	1b
.	2A/	2E/	.
=115	=115	=115	=115
1C	0A	0E	1cc
0BB	.	.	1.dd
.	1G#i	1D	.
.	.	.	2b\
=116	=116	=116	=116
0AA	0.A	0.E	1cc
.	.	.	2b\
.	.	.	2a/
1r	.	.	2g/
.	.	.	2f/
=117	=117	=117	=117
1A	1c	0.r	0e
2G\	2B\	.	.
2F\	2A/	.	.
2E\	2G/	.	1r
2D\	2F/	.	.
=118	=118	=118	=118
0C	0E	1e	1cc
.	.	2d\	2b\
.	.	2c\	2a/
1r	1r	2B\	2g/
.	.	2A/	2f/
=119	=119	=119	=119
1A	1c	1.e	0e
2G\	2B\	.	.
2F\	2A/	2d\	.
2E\	2G/	2c\	1r
2D\	2F/	2B\	.
=120	=120	=120	=120
1F	0c	1.A	1a
2E\	.	.	2g/
2D\	.	2B\	2f/
2C/	1r	1G	2e/
2BB/	.	.	2d/
=121	=121	=121	=121
0AA	1.A	1.c	1f
.	.	.	2e/
.	2F/	2d\	2d/
1r	1G	1e	2c/
.	.	.	2B/
=122	=122	=122	=122
1r	0A	1c	1A
1.D	.	1.f	0a
.	1D	.	.
2AA/	.	2e\	.
=123	=123	=123	=123
1C	1E	0e	1g
1.D	1.F	.	1.f
.	.	1d	.
2AA/	2G/	.	2e/
=124	=124	=124	=124
1AA	0.A	[0.e	1e
1.A	.	.	0cc
2E\	.	.	.
=125	=125	=125	=125
1G	1B	0.e]	1b
1.A	1.c	.	1.a
2E\	2B\	.	2g/
=126	=126	=126	=126
0.El	0.Bl	0.el	0.gl
==	==	==	==
*-	*-	*-	*-
!!!RDF**kern: l=long note in original notation
!!!RDF**kern: i=editorial accidental
!!!RDF**kern: V=start of tuplet marker
!!!RDF**kern: Z=end of tuplet marker
!!!ENC:	Will Watson 02/09/2011
!!!END:	2012/01/21/
!!!EED:	Jesse Rodin
!!!EEV:	2012/06/24/
!!attribution-level@Jos: 5 (doubtful)
!!!ONB:	Translated from MusicXML and edited on 2012/06/24/ by Craig Sapp
!!muse2ps: T^@{OPR}^u^@{ONM}{. }@{OTL}^C^La Rue/Josquin?\n@{SCT}^i2I150v85,85,85,150Q16c125
